src/assets/outline/SendSqaure2.svg

<svg width="24" height="24" viewBox="0 0 24 24"  xmlns="http://www.w3.org/2000/svg">
<path d="M15 22.75H9C3.57 22.75 1.25 20.43 1.25 15V9C1.25 3.57 3.57 1.25 9 1.25H15C20.43 1.25 22.75 3.57 22.75 9V15C22.75 20.43 20.43 22.75 15 22.75ZM9 2.75C4.39 2.75 2.75 4.39 2.75 9V15C2.75 19.61 4.39 21.25 9 21.25H15C19.61 21.25 21.25 19.61 21.25 15V9C21.25 4.39 19.61 2.75 15 2.75H9Z" />
<path d="M14.8298 12.6799C14.4198 12.6799 14.0798 12.3399 14.0798 11.9299V8.43994H10.5898C10.1798 8.43994 9.83984 8.09994 9.83984 7.68994C9.83984 7.27994 10.1798 6.93994 10.5898 6.93994H14.8298C15.2398 6.93994 15.5798 7.27994 15.5798 7.68994V11.9299C15.5798 12.3399 15.2398 12.6799 14.8298 12.6799Z" />
<path d="M9.16986 14.0901C8.97986 14.0901 8.78986 14.0201 8.63986 13.8701C8.34986 13.5801 8.34986 13.1001 8.63986 12.8101L14.2999 7.15012C14.5899 6.86012 15.0699 6.86012 15.3599 7.15012C15.6499 7.44012 15.6499 7.92013 15.3599 8.21013L9.69986 13.8701C9.55986 14.0201 9.35986 14.0901 9.16986 14.0901Z" />
<path d="M12 18.2302C9.88995 18.2302 7.76995 17.8902 5.75995 17.2202C5.36995 17.0902 5.15995 16.6602 5.28995 16.2702C5.41995 15.8802 5.84996 15.6602 6.23996 15.8002C9.95996 17.0402 14.05 17.0402 17.77 15.8002C18.16 15.6702 18.59 15.8802 18.72 16.2702C18.85 16.6602 18.64 17.0902 18.25 17.2202C16.23 17.9002 14.11 18.2302 12 18.2302Z" />
</svg>

<?xml version="1.0" encoding="UTF-8"?>
<svg width="24" height="24" viewBox="0 0 24 24" xmlns="http://www.w3.org/2000/svg">
 <path d="m15 22.75h-6c-5.43 0-7.75-2.32-7.75-7.75v-6c0-5.43 2.32-7.75 7.75-7.75h6c5.43 0 7.75 2.32 7.75 7.75v6c0 5.43-2.32 7.75-7.75 7.75zm-6-20c-4.61 0-6.25 1.64-6.25 6.25v6c0 4.61 1.64 6.25 6.25 6.25h6c4.61 0 6.25-1.64 6.25-6.25v-6c0-4.61-1.64-6.25-6.25-6.25h-6z"/>
 <path d="m14.83 12.68c-0.41 0-0.75-0.34-0.75-0.75v-3.49h-3.49c-0.41 0-0.74996-0.34-0.74996-0.75s0.33996-0.75 0.74996-0.75h4.24c0.41 0 0.75 0.34 0.75 0.75v4.24c0 0.41-0.34 0.75-0.75 0.75z"/>
 <path d="m9.1699 14.09c-0.19 0-0.38-0.07-0.53-0.22-0.29-0.29-0.29-0.77 0-1.06l5.66-5.66c0.29-0.29 0.77-0.29 1.06 0s0.29 0.77001 0 1.06l-5.66 5.66c-0.14 0.15-0.34 0.22-0.53 0.22z"/>
 <path d="m12 18.23c-2.11 0-4.23-0.34-6.24-1.01-0.39-0.13-0.6-0.56-0.47-0.95s0.56001-0.61 0.95001-0.47c3.72 1.24 7.81 1.24 11.53 0 0.39-0.13 0.82 0.08 0.95 0.47s-0.08 0.82-0.47 0.95c-2.02 0.68-4.14 1.01-6.25 1.01z"/>
</svg>
